public/ruby.svg

<?xml version="1.0" encoding="utf-8"?><!-- Uploaded to: SVG Repo, www.svgrepo.com, Generator: SVG Repo Mixer Tools -->
<svg width="800px" height="800px" viewBox="0 0 32 32" fill="none" xmlns="http://www.w3.org/2000/svg">
<path fill-rule="evenodd" clip-rule="evenodd" d="M22.5941 19.8407L8.8916 27.9998L26.6338 26.7925L28.0003 8.85254L22.5941 19.8407Z" fill="url(#paint0_linear_87_8208)"/>
<path fill-rule="evenodd" clip-rule="evenodd" d="M26.6631 26.7806L25.1381 16.2261L20.9844 21.7262L26.6631 26.7806Z" fill="url(#paint1_linear_87_8208)"/>
<path fill-rule="evenodd" clip-rule="evenodd" d="M26.6836 26.7803L15.5117 25.9009L8.95117 27.9769L26.6836 26.7803Z" fill="url(#paint2_linear_87_8208)"/>
<path fill-rule="evenodd" clip-rule="evenodd" d="M8.96674 27.9796L11.7576 18.811L5.61621 20.1279L8.96674 27.9796Z" fill="url(#paint3_linear_87_8208)"/>
<path fill-rule="evenodd" clip-rule="evenodd" d="M27.4176 11.8117L20.4706 6.12207L18.5361 12.3936L27.4176 11.8117Z" fill="url(#paint4_linear_87_8208)"/>
<path fill-rule="evenodd" clip-rule="evenodd" d="M24.1684 4.09336L20.0826 6.35755L17.5049 4.06299L24.1684 4.09336Z" fill="url(#paint5_linear_87_8208)"/>
<path fill-rule="evenodd" clip-rule="evenodd" d="M4 23.2031L5.7116 20.0729L4.32706 16.3438L4 23.2031Z" fill="url(#paint6_linear_87_8208)"/>
<path fill-rule="evenodd" clip-rule="evenodd" d="M4.23535 16.2259L5.62838 20.1883L11.6814 18.8265L18.592 12.3862L20.5422 6.17431L17.4714 4L12.2506 5.95931C10.6057 7.49347 7.41387 10.529 7.29879 10.5861C7.18493 10.6444 5.19109 14.4233 4.23535 16.2259Z" fill="white"/>
<path d="M11.7227 18.7882L18.592 12.3863L18.5951 12.3765L20.9832 21.7566L11.7227 18.7882Z" fill="url(#paint7_linear_87_8208)"/>
<path fill-rule="evenodd" clip-rule="evenodd" d="M9.12619 9.10774C12.6911 5.56325 17.2869 3.46911 19.0506 5.2535C20.8132 7.03789 18.944 11.3744 15.3791 14.9176C11.8141 18.4609 7.27528 20.6705 5.5128 18.8861C3.74911 17.1029 5.56126 12.651 9.12619 9.10774Z" fill="url(#paint8_linear_87_8208)"/>
<path fill-rule="evenodd" clip-rule="evenodd" d="M8.9668 27.9755L11.7359 18.7778L20.9323 21.7405C17.6072 24.8671 13.909 27.5103 8.9668 27.9755Z" fill="url(#paint9_linear_87_8208)"/>
<path fill-rule="evenodd" clip-rule="evenodd" d="M18.6035 12.3679L20.9644 21.7454C23.742 18.8167 26.2349 15.6682 27.4558 11.7739L18.6035 12.3679Z" fill="url(#paint10_linear_87_8208)"/>
<path fill-rule="evenodd" clip-rule="evenodd" d="M27.4317 11.8217C28.3765 8.96229 28.5945 4.86025 24.1392 4.09863L20.4834 6.12354L27.4317 11.8217Z" fill="url(#paint11_linear_87_8208)"/>
<path fill-rule="evenodd" clip-rule="evenodd" d="M4 23.162C4.13082 27.8812 7.52617 27.9515 8.97249 27.9929L5.63166 20.1689L4 23.162Z" fill="#9E1209"/>
<path fill-rule="evenodd" clip-rule="evenodd" d="M18.6172 12.3826C20.7515 13.6981 25.0531 16.3401 25.1403 16.3887C25.2758 16.4652 26.9948 13.4819 27.3849 11.7959L18.6172 12.3826Z" fill="url(#paint12_radial_87_8208)"/>
<path fill-rule="evenodd" clip-rule="evenodd" d="M11.7324 18.7778L15.4342 25.9397C17.6231 24.7493 19.3371 23.2989 20.907 21.7453L11.7324 18.7778Z" fill="url(#paint13_radial_87_8208)"/>
<path fill-rule="evenodd" clip-rule="evenodd" d="M5.61728 20.1783L5.09277 26.4413C6.08243 27.7969 7.44396 27.9147 8.87211 27.8091C7.83885 25.2303 5.77475 20.0739 5.61728 20.1783Z" fill="url(#paint14_linear_87_8208)"/>
<path fill-rule="evenodd" clip-rule="evenodd" d="M20.4619 6.1393L27.8159 7.17422C27.4234 5.50644 26.2181 4.43022 24.1637 4.09375L20.4619 6.1393Z" fill="url(#paint15_linear_87_8208)"/>
<defs>
<linearGradient id="paint0_linear_87_8208" x1="25.0863" y1="30.1825" x2="20.0019" y2="21.2307" gradientUnits="userSpaceOnUse">
<stop stop-color="#FB7655"/>
<stop offset="0.41" stop-color="#E42B1E"/>
<stop offset="0.99" stop-color="#990000"/>
<stop offset="1" stop-color="#990000"/>
</linearGradient>
<linearGradient id="paint1_linear_87_8208" x1="27.6086" y1="22.6528" x2="21.0723" y2="18.2786" gradientUnits="userSpaceOnUse">
<stop stop-color="#871101"/>
<stop offset="0.99" stop-color="#911209"/>
<stop offset="1" stop-color="#911209"/>
</linearGradient>
<linearGradient id="paint2_linear_87_8208" x1="22.3878" y1="30.4542" x2="15.8517" y2="26.0802" gradientUnits="userSpaceOnUse">
<stop stop-color="#871101"/>
<stop offset="0.99" stop-color="#911209"/>
<stop offset="1" stop-color="#911209"/>
</linearGradient>
<linearGradient id="paint3_linear_87_8208" x1="8.68769" y1="19.4743" x2="9.70472" y2="26.0657" gradientUnits="userSpaceOnUse">
<stop stop-color="white"/>
<stop offset="0.23" stop-color="#E57252"/>
<stop offset="0.46" stop-color="#DE3B20"/>
<stop offset="0.99" stop-color="#A60003"/>
<stop offset="1" stop-color="#A60003"/>
</linearGradient>
<linearGradient id="paint4_linear_87_8208" x1="21.8192" y1="7.10002" x2="22.9409" y2="11.9204" gradientUnits="userSpaceOnUse">
<stop stop-color="white"/>
<stop offset="0.18" stop-color="#E46342"/>
<stop offset="0.4" stop-color="#C82410"/>
<stop offset="0.99" stop-color="#A80D00"/>
<stop offset="1" stop-color="#A80D00"/>
</linearGradient>
<linearGradient id="paint5_linear_87_8208" x1="18.4117" y1="5.40177" x2="23.2251" y2="3.00175" gradientUnits="userSpaceOnUse">
<stop stop-color="white"/>
<stop offset="0.54" stop-color="#C81F11"/>
<stop offset="0.99" stop-color="#BF0905"/>
<stop offset="1" stop-color="#BF0905"/>
</linearGradient>
<linearGradient id="paint6_linear_87_8208" x1="4.47282" y1="17.7935" x2="4.87073" y2="21.7663" gradientUnits="userSpaceOnUse">
<stop stop-color="white"/>
<stop offset="0.31" stop-color="#DE4024"/>
<stop offset="0.99" stop-color="#BF190B"/>
<stop offset="1" stop-color="#BF190B"/>
</linearGradient>
<linearGradient id="paint7_linear_87_8208" x1="15.6452" y1="13.3187" x2="16.02" y2="20.0464" gradientUnits="userSpaceOnUse">
<stop stop-color="white"/>
<stop offset="0.23" stop-color="#E4714E"/>
<stop offset="0.56" stop-color="#BE1A0D"/>
<stop offset="0.99" stop-color="#A80D00"/>
<stop offset="1" stop-color="#A80D00"/>
</linearGradient>
<linearGradient id="paint8_linear_87_8208" x1="1.75216" y1="22.8404" x2="20.4078" y2="3.71053" gradientUnits="userSpaceOnUse">
<stop stop-color="#BD0012"/>
<stop offset="0.07" stop-color="white"/>
<stop offset="0.17" stop-color="white"/>
<stop offset="0.27" stop-color="#C82F1C"/>
<stop offset="0.33" stop-color="#820C01"/>
<stop offset="0.46" stop-color="#A31601"/>
<stop offset="0.72" stop-color="#B31301"/>
<stop offset="0.99" stop-color="#E82609"/>
<stop offset="1" stop-color="#E82609"/>
</linearGradient>
<linearGradient id="paint9_linear_87_8208" x1="16.0015" y1="24.7752" x2="10.3965" y2="23.3957" gradientUnits="userSpaceOnUse">
<stop stop-color="#8C0C01"/>
<stop offset="0.54" stop-color="#990C00"/>
<stop offset="0.99" stop-color="#A80D0E"/>
<stop offset="1" stop-color="#A80D0E"/>
</linearGradient>
<linearGradient id="paint10_linear_87_8208" x1="25.6251" y1="18.0314" x2="20.635" y2="13.5714" gradientUnits="userSpaceOnUse">
<stop stop-color="#7E110B"/>
<stop offset="0.99" stop-color="#9E0C00"/>
<stop offset="1" stop-color="#9E0C00"/>
</linearGradient>
<linearGradient id="paint11_linear_87_8208" x1="27.4539" y1="9.82314" x2="24.9671" y2="7.17189" gradientUnits="userSpaceOnUse">
<stop stop-color="#79130D"/>
<stop offset="0.99" stop-color="#9E120B"/>
<stop offset="1" stop-color="#9E120B"/>
</linearGradient>
<radialGradient id="paint12_radial_87_8208" cx="0" cy="0" r="1" gradientUnits="userSpaceOnUse" gradientTransform="translate(21.4229 13.6432) scale(6.09995 6.11692)">
<stop stop-color="#A80D00"/>
<stop offset="0.99" stop-color="#7E0E08"/>
<stop offset="1" stop-color="#7E0E08"/>
</radialGradient>
<radialGradient id="paint13_radial_87_8208" cx="0" cy="0" r="1" gradientUnits="userSpaceOnUse" gradientTransform="translate(12.9755 21.7042) scale(8.10906 8.13164)">
<stop stop-color="#A30C00"/>
<stop offset="0.99" stop-color="#800E08"/>
<stop offset="1" stop-color="#800E08"/>
</radialGradient>
<linearGradient id="paint14_linear_87_8208" x1="7.23075" y1="27.9701" x2="5.19975" y2="21.0987" gradientUnits="userSpaceOnUse">
<stop stop-color="#8B2114"/>
<stop offset="0.43" stop-color="#9E100A"/>
<stop offset="0.99" stop-color="#B3100C"/>
<stop offset="1" stop-color="#B3100C"/>
</linearGradient>
<linearGradient id="paint15_linear_87_8208" x1="22.7321" y1="5.19037" x2="27.2663" y2="7.18628" gradientUnits="userSpaceOnUse">
<stop stop-color="#B31000"/>
<stop offset="0.44" stop-color="#910F08"/>
<stop offset="0.99" stop-color="#791C12"/>
<stop offset="1" stop-color="#791C12"/>
</linearGradient>
</defs>
</svg>

<svg xmlns="http://www.w3.org/2000/svg" width="800" height="800" fill="none" viewBox="0 0 32 32"><path fill="url(#a)" fill-rule="evenodd" d="M22.594 19.84 8.892 28l17.742-1.207L28 8.853z" clip-rule="evenodd"/><path fill="url(#b)" fill-rule="evenodd" d="m26.663 26.78-1.525-10.554-4.154 5.5z" clip-rule="evenodd"/><path fill="url(#c)" fill-rule="evenodd" d="m26.684 26.78-11.172-.88-6.56 2.077z" clip-rule="evenodd"/><path fill="url(#d)" fill-rule="evenodd" d="m8.967 27.98 2.79-9.169-6.14 1.317z" clip-rule="evenodd"/><path fill="url(#e)" fill-rule="evenodd" d="m27.418 11.812-6.947-5.69-1.935 6.272z" clip-rule="evenodd"/><path fill="url(#f)" fill-rule="evenodd" d="m24.168 4.093-4.085 2.265-2.578-2.295z" clip-rule="evenodd"/><path fill="url(#g)" fill-rule="evenodd" d="m4 23.203 1.712-3.13-1.385-3.73z" clip-rule="evenodd"/><path fill="#fff" fill-rule="evenodd" d="m4.235 16.226 1.393 3.962 6.053-1.361 6.911-6.44 1.95-6.213L17.472 4 12.25 5.96c-1.645 1.533-4.837 4.569-4.952 4.626-.114.058-2.108 3.837-3.064 5.64" clip-rule="evenodd"/><path fill="url(#h)" d="m11.723 18.788 6.869-6.402.003-.01 2.388 9.38z"/><path fill="url(#i)" fill-rule="evenodd" d="M9.126 9.108c3.565-3.545 8.16-5.639 9.925-3.855 1.762 1.785-.107 6.121-3.672 9.665s-8.104 5.753-9.866 3.968c-1.764-1.783.048-6.235 3.613-9.778" clip-rule="evenodd"/><path fill="url(#j)" fill-rule="evenodd" d="m8.967 27.976 2.769-9.198 9.196 2.963c-3.325 3.126-7.023 5.77-11.965 6.235" clip-rule="evenodd"/><path fill="url(#k)" fill-rule="evenodd" d="m18.604 12.368 2.36 9.377c2.778-2.928 5.27-6.077 6.492-9.971z" clip-rule="evenodd"/><path fill="url(#l)" fill-rule="evenodd" d="M27.432 11.822c.945-2.86 1.163-6.962-3.293-7.723l-3.656 2.025z" clip-rule="evenodd"/><path fill="#9e1209" fill-rule="evenodd" d="M4 23.162c.13 4.72 3.526 4.79 4.972 4.83l-3.34-7.823z" clip-rule="evenodd"/><path fill="url(#m)" fill-rule="evenodd" d="M18.617 12.383c2.134 1.315 6.436 3.957 6.523 4.006.136.076 1.855-2.907 2.245-4.593z" clip-rule="evenodd"/><path fill="url(#n)" fill-rule="evenodd" d="m11.732 18.778 3.702 7.162c2.19-1.19 3.903-2.641 5.473-4.195z" clip-rule="evenodd"/><path fill="url(#o)" fill-rule="evenodd" d="m5.617 20.178-.524 6.263c.99 1.356 2.351 1.474 3.78 1.368-1.034-2.579-3.098-7.735-3.256-7.63" clip-rule="evenodd"/><path fill="url(#p)" fill-rule="evenodd" d="m20.462 6.14 7.354 1.034c-.393-1.668-1.598-2.744-3.652-3.08z" clip-rule="evenodd"/><defs><linearGradient id="a" x1="25.086" x2="20.002" y1="30.183" y2="21.231" gradientUnits="userSpaceOnUse"><stop stop-color="#fb7655"/><stop offset=".41" stop-color="#e42b1e"/><stop offset=".99" stop-color="#900"/><stop offset="1" stop-color="#900"/></linearGradient><linearGradient id="b" x1="27.609" x2="21.072" y1="22.653" y2="18.279" gradientUnits="userSpaceOnUse"><stop stop-color="#871101"/><stop offset=".99" stop-color="#911209"/><stop offset="1" stop-color="#911209"/></linearGradient><linearGradient id="c" x1="22.388" x2="15.852" y1="30.454" y2="26.08" gradientUnits="userSpaceOnUse"><stop stop-color="#871101"/><stop offset=".99" stop-color="#911209"/><stop offset="1" stop-color="#911209"/></linearGradient><linearGradient id="d" x1="8.688" x2="9.705" y1="19.474" y2="26.066" gradientUnits="userSpaceOnUse"><stop stop-color="#fff"/><stop offset=".23" stop-color="#e57252"/><stop offset=".46" stop-color="#de3b20"/><stop offset=".99" stop-color="#a60003"/><stop offset="1" stop-color="#a60003"/></linearGradient><linearGradient id="e" x1="21.819" x2="22.941" y1="7.1" y2="11.92" gradientUnits="userSpaceOnUse"><stop stop-color="#fff"/><stop offset=".18" stop-color="#e46342"/><stop offset=".4" stop-color="#c82410"/><stop offset=".99" stop-color="#a80d00"/><stop offset="1" stop-color="#a80d00"/></linearGradient><linearGradient id="f" x1="18.412" x2="23.225" y1="5.402" y2="3.002" gradientUnits="userSpaceOnUse"><stop stop-color="#fff"/><stop offset=".54" stop-color="#c81f11"/><stop offset=".99" stop-color="#bf0905"/><stop offset="1" stop-color="#bf0905"/></linearGradient><linearGradient id="g" x1="4.473" x2="4.871" y1="17.794" y2="21.766" gradientUnits="userSpaceOnUse"><stop stop-color="#fff"/><stop offset=".31" stop-color="#de4024"/><stop offset=".99" stop-color="#bf190b"/><stop offset="1" stop-color="#bf190b"/></linearGradient><linearGradient id="h" x1="15.645" x2="16.02" y1="13.319" y2="20.046" gradientUnits="userSpaceOnUse"><stop stop-color="#fff"/><stop offset=".23" stop-color="#e4714e"/><stop offset=".56" stop-color="#be1a0d"/><stop offset=".99" stop-color="#a80d00"/><stop offset="1" stop-color="#a80d00"/></linearGradient><linearGradient id="i" x1="1.752" x2="20.408" y1="22.84" y2="3.711" gradientUnits="userSpaceOnUse"><stop stop-color="#bd0012"/><stop offset=".07" stop-color="#fff"/><stop offset=".17" stop-color="#fff"/><stop offset=".27" stop-color="#c82f1c"/><stop offset=".33" stop-color="#820c01"/><stop offset=".46" stop-color="#a31601"/><stop offset=".72" stop-color="#b31301"/><stop offset=".99" stop-color="#e82609"/><stop offset="1" stop-color="#e82609"/></linearGradient><linearGradient id="j" x1="16.002" x2="10.396" y1="24.775" y2="23.396" gradientUnits="userSpaceOnUse"><stop stop-color="#8c0c01"/><stop offset=".54" stop-color="#990c00"/><stop offset=".99" stop-color="#a80d0e"/><stop offset="1" stop-color="#a80d0e"/></linearGradient><linearGradient id="k" x1="25.625" x2="20.635" y1="18.031" y2="13.571" gradientUnits="userSpaceOnUse"><stop stop-color="#7e110b"/><stop offset=".99" stop-color="#9e0c00"/><stop offset="1" stop-color="#9e0c00"/></linearGradient><linearGradient id="l" x1="27.454" x2="24.967" y1="9.823" y2="7.172" gradientUnits="userSpaceOnUse"><stop stop-color="#79130d"/><stop offset=".99" stop-color="#9e120b"/><stop offset="1" stop-color="#9e120b"/></linearGradient><linearGradient id="o" x1="7.231" x2="5.2" y1="27.97" y2="21.099" gradientUnits="userSpaceOnUse"><stop stop-color="#8b2114"/><stop offset=".43" stop-color="#9e100a"/><stop offset=".99" stop-color="#b3100c"/><stop offset="1" stop-color="#b3100c"/></linearGradient><linearGradient id="p" x1="22.732" x2="27.266" y1="5.19" y2="7.186" gradientUnits="userSpaceOnUse"><stop stop-color="#b31000"/><stop offset=".44" stop-color="#910f08"/><stop offset=".99" stop-color="#791c12"/><stop offset="1" stop-color="#791c12"/></linearGradient><radialGradient id="m" cx="0" cy="0" r="1" gradientTransform="matrix(6.09995 0 0 6.11692 21.423 13.643)" gradientUnits="userSpaceOnUse"><stop stop-color="#a80d00"/><stop offset=".99" stop-color="#7e0e08"/><stop offset="1" stop-color="#7e0e08"/></radialGradient><radialGradient id="n" cx="0" cy="0" r="1" gradientTransform="matrix(8.10906 0 0 8.13164 12.976 21.704)" gradientUnits="userSpaceOnUse"><stop stop-color="#a30c00"/><stop offset=".99" stop-color="#800e08"/><stop offset="1" stop-color="#800e08"/></radialGradient></defs></svg>
